X:850
T:Dennis Murphy's
M:12/8
R:SingleJig
K:D
B|A2D FED F2A A2f|g2e f2d e2d Bcd|A2D FED F2A A2f|a2f efe d3 d2::\
A|d2e f3 gfe f3|gfe f2d e2d B2A|\
d2e f3 gfe f2g|1 a2f efe d3 d2:|2 a2f efe d3 dcB||
